X:1
T:John Begg Esq.: Lochnagar
T:John Begg Esq.: Lochnagar
T:Alexander Walker
C:Alexander Walker
L:1/8
M:4/4
K:F
V:1 treble 
V:1
 A | F<Fc>F d>FA>f | F<FA>F G3 f | F<FA>F f>ag>a | c>Af>A (G2 G) :| a | f>cd>f c>AF>A | %7
 G>FA>C (D2 D>)a | f>cd>f c<AF>A | B>Gc>C (F2 F>)f | a>fg>a f>cd>f | c>Af>A G3 B | %12
 D>FC>F B,>DA,>C | D<GG>E (F2 F) || %14

